Lila_HD/places/scalable/network-server-symbolic.svg

<?xml version="1.0" encoding="UTF-8"?>
<!-- Created with Inkscape (http://www.inkscape.org/) -->
<svg version="1.1" viewBox="0 0 16 16" xmlns="http://www.w3.org/2000/svg" xmlns:cc="http://creativecommons.org/ns#" xmlns:dc="http://purl.org/dc/elements/1.1/" xmlns:rdf="http://www.w3.org/1999/02/22-rdf-syntax-ns#">
<metadata>
<rdf:RDF>
<cc:Work rdf:about="">
<dc:format>image/svg+xml</dc:format>
<dc:type rdf:resource="http://purl.org/dc/dcmitype/StillImage"/>
<dc:title/>
</cc:Work>
</rdf:RDF>
</metadata>
<path d="m1 1v10h14v-10h-14zm3 3h8v4h-8v-4zm2 8v1h-6v2h6v1h4v-1h6v-2h-6v-1h-4z" fill="#999" fill-opacity=".91237"/>
<path d="m26.354 0.5v1h-8v2h7v1h7v7h1v-11zm-1 4h-8v7h4v-1h8v1h2v-6h-6zm-2 8v1h-6v1h6v1h4v-1h6v-1h-6v-1z" fill="#999" fill-opacity=".91237"/>
<path d="m5 5h6v2h-6z" color="#000000" fill="#404957" fill-opacity=".23084"/>
</svg>

<?xml version="1.0" encoding="UTF-8" standalone="no"?>
<!-- Created with Inkscape (http://www.inkscape.org/) -->

<svg
   xmlns:dc="http://purl.org/dc/elements/1.1/"
   xmlns:cc="http://creativecommons.org/ns#"
   xmlns:rdf="http://www.w3.org/1999/02/22-rdf-syntax-ns#"
   xmlns:svg="http://www.w3.org/2000/svg"
   xmlns="http://www.w3.org/2000/svg"
   xmlns:sodipodi="http://sodipodi.sourceforge.net/DTD/sodipodi-0.dtd"
   xmlns:inkscape="http://www.inkscape.org/namespaces/inkscape"
   version="1.1"
   width="16"
   height="16"
   id="svg13094"
   inkscape:version="0.48.3.1 r9886"
   sodipodi:docname="gnome-fs-network.svg"
   inkscape:export-filename="folder.png"
   inkscape:export-xdpi="90"
   inkscape:export-ydpi="90">
  <sodipodi:namedview
     pagecolor="#ffffff"
     bordercolor="#666666"
     borderopacity="1"
     objecttolerance="10"
     gridtolerance="10"
     guidetolerance="10"
     inkscape:pageopacity="0"
     inkscape:pageshadow="2"
     inkscape:window-width="1920"
     inkscape:window-height="1033"
     id="namedview6"
     showgrid="true"
     inkscape:snap-bbox="true"
     inkscape:bbox-paths="true"
     inkscape:bbox-nodes="true"
     inkscape:snap-bbox-edge-midpoints="true"
     inkscape:snap-bbox-midpoints="true"
     inkscape:object-paths="true"
     inkscape:snap-intersection-paths="true"
     inkscape:object-nodes="true"
     inkscape:snap-smooth-nodes="true"
     inkscape:snap-midpoints="true"
     inkscape:snap-object-midpoints="true"
     inkscape:snap-center="true"
     inkscape:zoom="41.7193"
     inkscape:cx="2.7949099"
     inkscape:cy="8.3104756"
     inkscape:window-x="-2"
     inkscape:window-y="25"
     inkscape:window-maximized="1"
     inkscape:current-layer="svg13094">
    <inkscape:grid
       type="xygrid"
       id="grid2983" />
  </sodipodi:namedview>
  <defs
     id="defs7" />
  <metadata
     id="metadata13099">
    <rdf:RDF>
      <cc:Work
         rdf:about="">
        <dc:format>image/svg+xml</dc:format>
        <dc:type
           rdf:resource="http://purl.org/dc/dcmitype/StillImage" />
        <dc:title />
      </cc:Work>
    </rdf:RDF>
  </metadata>
  <path
     style="fill:#999999;fill-opacity:0.912371168;fill-rule:nonzero"
     d="M 1 1 L 1 11 L 15 11 L 15 1 L 1 1 z M 4 4 L 12 4 L 12 8 L 4 8 L 4 4 z M 6 12 L 6 13 L 0 13 L 0 15 L 6 15 L 6 16 L 10 16 L 10 15 L 16 15 L 16 13 L 10 13 L 10 12 L 6 12 z "
     id="path3006" />
  <path
     style="fill:#999999;fill-opacity:0.912371168;fill-rule:nonzero"
     d="m 26.354078,0.5 0,1 -8,0 0,2 7,0 0,1 7,0 0,7 1,0 0,-11 z m -1,4 -8,0 0,7 4,0 0,-1 8,0 0,1 2,0 0,-6 -6,0 z m -2,8 0,1 -6,0 0,1 6,0 0,1 4,0 0,-1 6,0 0,-1 -6,0 0,-1 z"
     id="rect2997"
     inkscape:connector-curvature="0"
     sodipodi:nodetypes="ccccccccccccccccccccccccccccccccccc" />
  <path
     inkscape:connector-curvature="0"
     style="color:#000000;fill:#404957;fill-opacity:0.230837;fill-rule:nonzero;stroke:none;stroke-width:57.8928833;marker:none;visibility:visible;display:inline;overflow:visible;enable-background:accumulate"
     d="m 5,5 6,0 0,2 -6,0 z"
     id="rect2994" />
</svg>
